X:1
T:Title
%%score ( 1 2 ) { 3 | 4 }
L:1/8
Q:1/4=100
M:9/8
K:Ab
V:1 treble nm="Grand Piano, Soprano"
V:2 treble 
V:3 bass nm="Choir Pad, Bass"
V:4 bass 
V:1
 [CE]3 [Ec][DB][Fd] [Ec]3 | [CA]3 [CE][_C=D][_DF] [=CE]3 | z3 .d3 z3 | z3 .B3 z3 | %4
w: By~Barney~Elliott~Warren * * * *||||
 [DF][CE][B,E] [Ec][DB][Fd] [Ec]3 | [CA]3 [CE][_C=D][_DF] [=CE]3 | z3 .A3 z3 | %7
w: |||
 [Fd]3 [Ec]2 [DB] .[CA]3 | [CE]3 [CE]6 | [CE]3 [DF]6 | [DF]3 [CE]2 [EA] [Ac]2 [EB] | [FA]3 [GB]6 | %12
w: |||||
 d2- [Ed] [Ec]3 [EA]3 | .B3 z3 z3 | [_Ge]3 [Fd]2 [FB] [Ec]3 | [DB]3 [CA]6- | [CA]3 z3 z3 |] %17
w: |||||
V:2
 x9 | x9 | [CE]3 E-[Ec][Ed] [EB]3 | [EB]3 =D-[DF][DA] [EG]3 | x9 | x9 | [CA]3 E-[EB][Ec] [_Ge]3 | %7
 x9 | x9 | x9 | x9 | x9 | .G3 z3 z3 | F-[FA][DF] [CE]2 [CA] [Ec]3 | x9 | x9 | x9 |] %17
V:3
 A,3 A,2 A, A,3 | E,3 A,2 A, A,3 | A,3 B,A,B, G,3 | G,3 F,B,B, B,3 | B,A,G, A,2 A, A,3 | %5
 E,3 A,2 A, A,3 | A,3 A,G,A, A,3 | A,3 A,2 G, .A,3 | A,3 A,2 A, A,3 | A,3 A,2 A, A,3 | %10
 A,3 A,2[K:treble] C E3 | =D3 .E6 | B,2[K:bass] G, A,3 A,3 | A,2 A, A,2 A, A,3 | A,3 A,2 A, A,3 | %15
 G,3 A,6- | A,3 z3 z3 |] %17
V:4
 A,,3 A,,2 A,, A,,3 | A,,3 A,,2 A,, A,,3 | A,,3 E,2 E, E,3 | E,3 B,,2 B,, E,3 | E,3 A,,2 A,, A,,3 | %5
 A,,3 A,,2 A,, A,,3 | A,,3 C,B,,A,, C,3 | D,3 E,2 E, .A,,3 | A,,3 A,,2 A,, A,,3 | A,,3 D,2 D, D,3 | %10
 D,3 A,,2 A,, A,2 G, | F,3 E,2 E, .E,3 | E,3 A,,3 C,3 | D,2 D, A,,2 A,, A,,3 | C,3 D,2 D, E,3 | %15
 E,3 A,,6- | A,,3 z3 z3 |] %17

